images/16759011.svg

<?xml version="1.0" encoding="UTF-8"?>
<svg xmlns="http://www.w3.org/2000/svg" xmlns:xlink="http://www.w3.org/1999/xlink" width="300pt" height="300pt" viewBox="0 0 300 300" version="1.1">
<defs>
<g>
<symbol overflow="visible" id="glyph0-0">
<path style="stroke:none;" d="M 0.59375 2.125 L 0.59375 -8.46875 L 6.59375 -8.46875 L 6.59375 2.125 Z M 1.265625 1.453125 L 5.9375 1.453125 L 5.9375 -7.78125 L 1.265625 -7.78125 Z M 1.265625 1.453125 "/>
</symbol>
<symbol overflow="visible" id="glyph0-1">
<path style="stroke:none;" d="M 4.734375 -7.953125 C 3.867188 -7.953125 3.179688 -7.628906 2.671875 -6.984375 C 2.171875 -6.347656 1.921875 -5.472656 1.921875 -4.359375 C 1.921875 -3.265625 2.171875 -2.394531 2.671875 -1.75 C 3.179688 -1.113281 3.867188 -0.796875 4.734375 -0.796875 C 5.585938 -0.796875 6.265625 -1.113281 6.765625 -1.75 C 7.273438 -2.394531 7.53125 -3.265625 7.53125 -4.359375 C 7.53125 -5.472656 7.273438 -6.347656 6.765625 -6.984375 C 6.265625 -7.628906 5.585938 -7.953125 4.734375 -7.953125 Z M 4.734375 -8.90625 C 5.953125 -8.90625 6.925781 -8.492188 7.65625 -7.671875 C 8.394531 -6.847656 8.765625 -5.742188 8.765625 -4.359375 C 8.765625 -2.984375 8.394531 -1.882812 7.65625 -1.0625 C 6.925781 -0.238281 5.953125 0.171875 4.734375 0.171875 C 3.503906 0.171875 2.519531 -0.238281 1.78125 -1.0625 C 1.039062 -1.882812 0.671875 -2.984375 0.671875 -4.359375 C 0.671875 -5.742188 1.039062 -6.847656 1.78125 -7.671875 C 2.519531 -8.492188 3.503906 -8.90625 4.734375 -8.90625 Z M 4.734375 -8.90625 "/>
</symbol>
<symbol overflow="visible" id="glyph0-2">
<path style="stroke:none;" d="M 1.171875 -8.75 L 2.765625 -8.75 L 6.65625 -1.4375 L 6.65625 -8.75 L 7.796875 -8.75 L 7.796875 0 L 6.203125 0 L 2.328125 -7.3125 L 2.328125 0 L 1.171875 0 Z M 1.171875 -8.75 "/>
</symbol>
<symbol overflow="visible" id="glyph0-3">
<path style="stroke:none;" d="M 1.171875 -8.75 L 2.359375 -8.75 L 2.359375 -5.15625 L 6.65625 -5.15625 L 6.65625 -8.75 L 7.84375 -8.75 L 7.84375 0 L 6.65625 0 L 6.65625 -4.171875 L 2.359375 -4.171875 L 2.359375 0 L 1.171875 0 Z M 1.171875 -8.75 "/>
</symbol>
</g>
</defs>
<g id="surface46253">
<rect x="0" y="0" width="300" height="300" style="fill:rgb(100%,100%,100%);fill-opacity:1;stroke:none;"/>
<path style="fill:none;stroke-width:1.2;stroke-linecap:butt;stroke-linejoin:miter;stroke:rgb(0%,0%,0%);stroke-opacity:1;stroke-miterlimit:10;" d="M 85.8125 189.859375 L 114.5 191.824219 "/>
<path style="fill:none;stroke-width:1.2;stroke-linecap:butt;stroke-linejoin:miter;stroke:rgb(0%,0%,0%);stroke-opacity:1;stroke-miterlimit:10;" d="M 111.464844 193.3125 L 117.785156 206.222656 "/>
<path style="fill:none;stroke-width:1.2;stroke-linecap:butt;stroke-linejoin:miter;stroke:rgb(100%,0%,0%);stroke-opacity:1;stroke-miterlimit:10;" d="M 117.785156 206.222656 L 124.105469 219.136719 "/>
<path style="fill:none;stroke-width:1.2;stroke-linecap:butt;stroke-linejoin:miter;stroke:rgb(0%,0%,0%);stroke-opacity:1;stroke-miterlimit:10;" d="M 117.539062 190.335938 L 123.859375 203.25 "/>
<path style="fill:none;stroke-width:1.2;stroke-linecap:butt;stroke-linejoin:miter;stroke:rgb(100%,0%,0%);stroke-opacity:1;stroke-miterlimit:10;" d="M 123.859375 203.25 L 130.179688 216.164062 "/>
<path style="fill:none;stroke-width:1.2;stroke-linecap:butt;stroke-linejoin:miter;stroke:rgb(0%,0%,0%);stroke-opacity:1;stroke-miterlimit:10;" d="M 114.5 191.824219 L 130.546875 167.960938 "/>
<path style=" stroke:none;fill-rule:nonzero;fill:rgb(100%,100%,100%);fill-opacity:1;" d="M 122.144531 210.652344 L 132.144531 210.652344 L 132.144531 224.652344 L 122.144531 224.652344 Z M 122.144531 210.652344 "/>
<g style="fill:rgb(100%,0%,0%);fill-opacity:1;">
  <use xlink:href="#glyph0-1" x="122.144531" y="221.791016"/>
</g>
<path style="fill:none;stroke-width:1.2;stroke-linecap:butt;stroke-linejoin:miter;stroke:rgb(0%,0%,0%);stroke-opacity:1;stroke-miterlimit:10;" d="M 130.546875 167.960938 L 159.234375 169.929688 "/>
<path style="fill:none;stroke-width:1.2;stroke-linecap:butt;stroke-linejoin:miter;stroke:rgb(0%,0%,0%);stroke-opacity:1;stroke-miterlimit:10;" d="M 130.546875 167.960938 L 117.90625 142.136719 "/>
<path style="fill:none;stroke-width:1.2;stroke-linecap:butt;stroke-linejoin:miter;stroke:rgb(0%,0%,0%);stroke-opacity:1;stroke-miterlimit:10;" d="M 159.234375 169.929688 L 175.28125 146.066406 "/>
<path style="fill:none;stroke-width:1.2;stroke-linecap:butt;stroke-linejoin:miter;stroke:rgb(0%,0%,0%);stroke-opacity:1;stroke-miterlimit:10;" d="M 159.234375 169.929688 L 165.554688 182.84375 "/>
<path style="fill:none;stroke-width:1.2;stroke-linecap:butt;stroke-linejoin:miter;stroke:rgb(0%,0%,100%);stroke-opacity:1;stroke-miterlimit:10;" d="M 165.554688 182.84375 L 171.875 195.757812 "/>
<path style="fill:none;stroke-width:1.2;stroke-linecap:butt;stroke-linejoin:miter;stroke:rgb(0%,0%,0%);stroke-opacity:1;stroke-miterlimit:10;" d="M 175.28125 146.066406 L 203.96875 148.035156 "/>
<path style="fill:none;stroke-width:1.2;stroke-linecap:butt;stroke-linejoin:miter;stroke:rgb(0%,0%,0%);stroke-opacity:1;stroke-miterlimit:10;" d="M 178.613281 139.515625 L 201.5625 141.085938 "/>
<path style="fill:none;stroke-width:1.2;stroke-linecap:butt;stroke-linejoin:miter;stroke:rgb(0%,0%,0%);stroke-opacity:1;stroke-miterlimit:10;" d="M 162.640625 120.242188 L 175.28125 146.066406 "/>
<path style="fill:none;stroke-width:1.2;stroke-linecap:butt;stroke-linejoin:miter;stroke:rgb(0%,0%,0%);stroke-opacity:1;stroke-miterlimit:10;" d="M 203.96875 148.035156 L 220.015625 124.171875 "/>
<path style="fill:none;stroke-width:1.2;stroke-linecap:butt;stroke-linejoin:miter;stroke:rgb(0%,0%,0%);stroke-opacity:1;stroke-miterlimit:10;" d="M 220.015625 124.171875 L 248.703125 126.140625 "/>
<path style="fill:none;stroke-width:1.2;stroke-linecap:butt;stroke-linejoin:miter;stroke:rgb(0%,0%,0%);stroke-opacity:1;stroke-miterlimit:10;" d="M 223.347656 117.621094 L 246.296875 119.191406 "/>
<path style="fill:none;stroke-width:1.2;stroke-linecap:butt;stroke-linejoin:miter;stroke:rgb(0%,0%,0%);stroke-opacity:1;stroke-miterlimit:10;" d="M 207.375 98.34375 L 220.015625 124.171875 "/>
<path style="fill:none;stroke-width:1.2;stroke-linecap:butt;stroke-linejoin:miter;stroke:rgb(0%,0%,0%);stroke-opacity:1;stroke-miterlimit:10;" d="M 248.703125 126.140625 L 264.75 102.277344 "/>
<path style="fill:none;stroke-width:1.2;stroke-linecap:butt;stroke-linejoin:miter;stroke:rgb(0%,0%,0%);stroke-opacity:1;stroke-miterlimit:10;" d="M 264.75 102.277344 L 252.109375 76.449219 "/>
<path style="fill:none;stroke-width:1.2;stroke-linecap:butt;stroke-linejoin:miter;stroke:rgb(0%,0%,0%);stroke-opacity:1;stroke-miterlimit:10;" d="M 257.410156 102.667969 L 247.296875 82.007812 "/>
<path style="fill:none;stroke-width:1.2;stroke-linecap:butt;stroke-linejoin:miter;stroke:rgb(0%,0%,0%);stroke-opacity:1;stroke-miterlimit:10;" d="M 252.109375 76.449219 L 223.421875 74.484375 "/>
<path style="fill:none;stroke-width:1.2;stroke-linecap:butt;stroke-linejoin:miter;stroke:rgb(0%,0%,0%);stroke-opacity:1;stroke-miterlimit:10;" d="M 223.421875 74.484375 L 207.375 98.34375 "/>
<path style="fill:none;stroke-width:1.2;stroke-linecap:butt;stroke-linejoin:miter;stroke:rgb(0%,0%,0%);stroke-opacity:1;stroke-miterlimit:10;" d="M 227.429688 80.644531 L 214.59375 99.734375 "/>
<path style="fill:none;stroke-width:1.2;stroke-linecap:butt;stroke-linejoin:miter;stroke:rgb(0%,0%,0%);stroke-opacity:1;stroke-miterlimit:10;" d="M 207.375 98.34375 L 178.6875 96.378906 "/>
<path style="fill:none;stroke-width:1.2;stroke-linecap:butt;stroke-linejoin:miter;stroke:rgb(0%,0%,0%);stroke-opacity:1;stroke-miterlimit:10;" d="M 178.6875 96.378906 L 162.640625 120.242188 "/>
<path style="fill:none;stroke-width:1.2;stroke-linecap:butt;stroke-linejoin:miter;stroke:rgb(0%,0%,0%);stroke-opacity:1;stroke-miterlimit:10;" d="M 182.695312 102.542969 L 169.859375 121.628906 "/>
<path style="fill:none;stroke-width:1.2;stroke-linecap:butt;stroke-linejoin:miter;stroke:rgb(0%,0%,100%);stroke-opacity:1;stroke-miterlimit:10;" d="M 171.875 195.757812 L 186.21875 196.738281 "/>
<path style="fill:none;stroke-width:1.2;stroke-linecap:butt;stroke-linejoin:miter;stroke:rgb(0%,0%,0%);stroke-opacity:1;stroke-miterlimit:10;" d="M 186.21875 196.738281 L 200.5625 197.722656 "/>
<path style=" stroke:none;fill-rule:nonzero;fill:rgb(100%,100%,100%);fill-opacity:1;" d="M 162.875 188.757812 L 180.875 188.757812 L 180.875 202.757812 L 162.875 202.757812 Z M 162.875 188.757812 "/>
<g style="fill:rgb(0%,0%,100%);fill-opacity:1;">
  <use xlink:href="#glyph0-2" x="162.875" y="199.896484"/>
  <use xlink:href="#glyph0-3" x="171.851562" y="199.896484"/>
</g>
<path style="fill:none;stroke-width:1.2;stroke-linecap:butt;stroke-linejoin:miter;stroke:rgb(0%,0%,0%);stroke-opacity:1;stroke-miterlimit:10;" d="M 203.371094 199.609375 L 211.394531 187.679688 "/>
<path style="fill:none;stroke-width:1.2;stroke-linecap:butt;stroke-linejoin:miter;stroke:rgb(100%,0%,0%);stroke-opacity:1;stroke-miterlimit:10;" d="M 211.394531 187.679688 L 219.417969 175.75 "/>
<path style="fill:none;stroke-width:1.2;stroke-linecap:butt;stroke-linejoin:miter;stroke:rgb(0%,0%,0%);stroke-opacity:1;stroke-miterlimit:10;" d="M 197.757812 195.835938 L 205.78125 183.902344 "/>
<path style="fill:none;stroke-width:1.2;stroke-linecap:butt;stroke-linejoin:miter;stroke:rgb(100%,0%,0%);stroke-opacity:1;stroke-miterlimit:10;" d="M 205.78125 183.902344 L 213.804688 171.972656 "/>
<path style="fill:none;stroke-width:1.2;stroke-linecap:butt;stroke-linejoin:miter;stroke:rgb(0%,0%,0%);stroke-opacity:1;stroke-miterlimit:10;" d="M 200.5625 197.722656 L 206.886719 210.636719 "/>
<path style="fill:none;stroke-width:1.2;stroke-linecap:butt;stroke-linejoin:miter;stroke:rgb(100%,0%,0%);stroke-opacity:1;stroke-miterlimit:10;" d="M 206.886719 210.636719 L 213.207031 223.550781 "/>
<path style=" stroke:none;fill-rule:nonzero;fill:rgb(100%,100%,100%);fill-opacity:1;" d="M 211.609375 166.859375 L 221.609375 166.859375 L 221.609375 180.859375 L 211.609375 180.859375 Z M 211.609375 166.859375 "/>
<g style="fill:rgb(100%,0%,0%);fill-opacity:1;">
  <use xlink:href="#glyph0-1" x="211.609375" y="177.998047"/>
</g>
<path style="fill:none;stroke-width:1.2;stroke-linecap:butt;stroke-linejoin:miter;stroke:rgb(100%,0%,0%);stroke-opacity:1;stroke-miterlimit:10;" d="M 213.207031 223.550781 L 227.550781 224.53125 "/>
<path style="fill:none;stroke-width:1.2;stroke-linecap:butt;stroke-linejoin:miter;stroke:rgb(0%,0%,0%);stroke-opacity:1;stroke-miterlimit:10;" d="M 227.550781 224.53125 L 241.894531 225.515625 "/>
<path style=" stroke:none;fill-rule:nonzero;fill:rgb(100%,100%,100%);fill-opacity:1;" d="M 208.207031 216.550781 L 218.207031 216.550781 L 218.207031 230.550781 L 208.207031 230.550781 Z M 208.207031 216.550781 "/>
<g style="fill:rgb(100%,0%,0%);fill-opacity:1;">
  <use xlink:href="#glyph0-1" x="208.207031" y="227.689453"/>
</g>
<path style="fill:none;stroke-width:1.2;stroke-linecap:butt;stroke-linejoin:miter;stroke:rgb(0%,0%,0%);stroke-opacity:1;stroke-miterlimit:10;" d="M 120.714844 144.023438 L 128.738281 132.09375 "/>
<path style="fill:none;stroke-width:1.2;stroke-linecap:butt;stroke-linejoin:miter;stroke:rgb(100%,0%,0%);stroke-opacity:1;stroke-miterlimit:10;" d="M 128.738281 132.09375 L 136.761719 120.164062 "/>
<path style="fill:none;stroke-width:1.2;stroke-linecap:butt;stroke-linejoin:miter;stroke:rgb(0%,0%,0%);stroke-opacity:1;stroke-miterlimit:10;" d="M 115.101562 140.246094 L 123.125 128.316406 "/>
<path style="fill:none;stroke-width:1.2;stroke-linecap:butt;stroke-linejoin:miter;stroke:rgb(100%,0%,0%);stroke-opacity:1;stroke-miterlimit:10;" d="M 123.125 128.316406 L 131.144531 116.386719 "/>
<path style="fill:none;stroke-width:1.2;stroke-linecap:butt;stroke-linejoin:miter;stroke:rgb(0%,0%,0%);stroke-opacity:1;stroke-miterlimit:10;" d="M 117.90625 142.136719 L 103.5625 141.152344 "/>
<path style="fill:none;stroke-width:1.2;stroke-linecap:butt;stroke-linejoin:miter;stroke:rgb(100%,0%,0%);stroke-opacity:1;stroke-miterlimit:10;" d="M 103.5625 141.152344 L 89.21875 140.167969 "/>
<path style=" stroke:none;fill-rule:nonzero;fill:rgb(100%,100%,100%);fill-opacity:1;" d="M 128.953125 111.273438 L 138.953125 111.273438 L 138.953125 125.273438 L 128.953125 125.273438 Z M 128.953125 111.273438 "/>
<g style="fill:rgb(100%,0%,0%);fill-opacity:1;">
  <use xlink:href="#glyph0-1" x="128.953125" y="122.412109"/>
</g>
<path style="fill:none;stroke-width:1.2;stroke-linecap:butt;stroke-linejoin:miter;stroke:rgb(100%,0%,0%);stroke-opacity:1;stroke-miterlimit:10;" d="M 89.21875 140.167969 L 82.898438 127.257812 "/>
<path style="fill:none;stroke-width:1.2;stroke-linecap:butt;stroke-linejoin:miter;stroke:rgb(0%,0%,0%);stroke-opacity:1;stroke-miterlimit:10;" d="M 82.898438 127.257812 L 76.578125 114.34375 "/>
<path style=" stroke:none;fill-rule:nonzero;fill:rgb(100%,100%,100%);fill-opacity:1;" d="M 84.21875 133.167969 L 94.21875 133.167969 L 94.21875 147.167969 L 84.21875 147.167969 Z M 84.21875 133.167969 "/>
<g style="fill:rgb(100%,0%,0%);fill-opacity:1;">
  <use xlink:href="#glyph0-1" x="84.21875" y="144.306641"/>
</g>
<path style="fill:none;stroke-width:1.2;stroke-linecap:butt;stroke-linejoin:miter;stroke:rgb(0%,0%,0%);stroke-opacity:1;stroke-miterlimit:10;" d="M 76.578125 114.34375 L 47.890625 112.375 "/>
<path style="fill:none;stroke-width:1.2;stroke-linecap:butt;stroke-linejoin:miter;stroke:rgb(0%,0%,0%);stroke-opacity:1;stroke-miterlimit:10;" d="M 50.929688 110.890625 L 38.289062 85.0625 "/>
<path style="fill:none;stroke-width:1.2;stroke-linecap:butt;stroke-linejoin:miter;stroke:rgb(0%,0%,0%);stroke-opacity:1;stroke-miterlimit:10;" d="M 44.851562 113.863281 L 32.210938 88.035156 "/>
</g>
</svg>

<svg xmlns="http://www.w3.org/2000/svg" xmlns:xlink="http://www.w3.org/1999/xlink" width="300pt" height="300pt" viewBox="0 0 300 300"><defs><symbol overflow="visible"><path d="M.594 2.125V-8.47h6V2.126zm.672-.672h4.671V-7.78h-4.67zm0 0"/></symbol><symbol overflow="visible" id="a"><path d="M4.734-7.953c-.867 0-1.554.324-2.062.97-.5.635-.75 1.51-.75 2.624 0 1.094.25 1.965.75 2.61.508.637 1.195.953 2.062.953.852 0 1.532-.316 2.032-.953.507-.645.765-1.516.765-2.61 0-1.113-.257-1.988-.764-2.624-.5-.645-1.18-.97-2.032-.97zm0-.953c1.22 0 2.192.414 2.922 1.234.74.824 1.11 1.93 1.11 3.313 0 1.376-.37 2.477-1.11 3.298C6.926-.24 5.953.17 4.734.17c-1.23 0-2.214-.41-2.953-1.234C1.04-1.882.673-2.984.673-4.36c0-1.382.367-2.488 1.11-3.312.738-.82 1.722-1.234 2.952-1.234zm0 0"/></symbol><symbol overflow="visible" id="b"><path d="M1.172-8.75h1.594l3.89 7.313V-8.75h1.14V0H6.204L2.328-7.313V0H1.172zm0 0"/></symbol><symbol overflow="visible" id="c"><path d="M1.172-8.75H2.36v3.594h4.296V-8.75h1.188V0H6.656v-4.172H2.36V0H1.17zm0 0"/></symbol></defs><g><path fill="#fff" d="M0 0h300v300H0z"/><path d="M85.813 189.86l28.687 1.964M111.465 193.313l6.32 12.91" stroke-width="1.2" stroke="#000" stroke-miterlimit="10" fill="none"/><path d="M117.785 206.223l6.32 12.914" stroke-width="1.2" stroke="#f00" stroke-miterlimit="10" fill="none"/><path d="M117.54 190.336l6.32 12.914" stroke-width="1.2" stroke="#000" stroke-miterlimit="10" fill="none"/><path d="M123.86 203.25l6.32 12.914" stroke-width="1.2" stroke="#f00" stroke-miterlimit="10" fill="none"/><path d="M114.5 191.824l16.047-23.863" stroke-width="1.2" stroke="#000" stroke-miterlimit="10" fill="none"/><path d="M122.145 210.652h10v14h-10zm0 0" fill="#fff"/><use xlink:href="#a" x="122.145" y="221.791" fill="#f00"/><path d="M130.547 167.96l28.687 1.97M130.547 167.96l-12.64-25.823M159.234 169.93l16.047-23.864M159.234 169.93l6.32 12.914" stroke-width="1.2" stroke="#000" stroke-miterlimit="10" fill="none"/><path d="M165.555 182.844l6.32 12.914" stroke-width="1.2" stroke="#00f" stroke-miterlimit="10" fill="none"/><path d="M175.28 146.066l28.69 1.97M178.613 139.516l22.95 1.57M162.64 120.242l12.64 25.824M203.97 148.035l16.046-23.863M220.016 124.172l28.687 1.97M223.348 117.62l22.95 1.57M207.375 98.344l12.64 25.828M248.703 126.14l16.047-23.863M264.75 102.277L252.11 76.45M257.41 102.668l-10.113-20.66M252.11 76.45l-28.688-1.966M223.422 74.484l-16.047 23.86M227.43 80.645l-12.836 19.09M207.375 98.344l-28.688-1.965M178.688 96.38L162.64 120.24M182.695 102.543L169.86 121.63" stroke-width="1.2" stroke="#000" stroke-miterlimit="10" fill="none"/><path d="M171.875 195.758l14.344.98" stroke-width="1.2" stroke="#00f" stroke-miterlimit="10" fill="none"/><path d="M186.22 196.738l14.343.985" stroke-width="1.2" stroke="#000" stroke-miterlimit="10" fill="none"/><path d="M162.875 188.758h18v14h-18zm0 0" fill="#fff"/><g fill="#00f"><use xlink:href="#b" x="162.875" y="199.896"/><use xlink:href="#c" x="171.852" y="199.896"/></g><path d="M203.37 199.61l8.025-11.93" stroke-width="1.2" stroke="#000" stroke-miterlimit="10" fill="none"/><path d="M211.395 187.68l8.023-11.93" stroke-width="1.2" stroke="#f00" stroke-miterlimit="10" fill="none"/><path d="M197.758 195.836l8.023-11.934" stroke-width="1.2" stroke="#000" stroke-miterlimit="10" fill="none"/><path d="M205.78 183.902l8.025-11.93" stroke-width="1.2" stroke="#f00" stroke-miterlimit="10" fill="none"/><path d="M200.563 197.723l6.324 12.914" stroke-width="1.2" stroke="#000" stroke-miterlimit="10" fill="none"/><path d="M206.887 210.637l6.32 12.914" stroke-width="1.2" stroke="#f00" stroke-miterlimit="10" fill="none"/><path d="M211.61 166.86h10v14h-10zm0 0" fill="#fff"/><use xlink:href="#a" x="211.609" y="177.998" fill="#f00"/><path d="M213.207 223.55l14.344.98" stroke-width="1.2" stroke="#f00" stroke-miterlimit="10" fill="none"/><path d="M227.55 224.53l14.345.986" stroke-width="1.2" stroke="#000" stroke-miterlimit="10" fill="none"/><path d="M208.207 216.55h10v14h-10zm0 0" fill="#fff"/><use xlink:href="#a" x="208.207" y="227.689" fill="#f00"/><path d="M120.715 144.023l8.023-11.93" stroke-width="1.2" stroke="#000" stroke-miterlimit="10" fill="none"/><path d="M128.738 132.094l8.024-11.93" stroke-width="1.2" stroke="#f00" stroke-miterlimit="10" fill="none"/><path d="M115.102 140.246l8.023-11.93" stroke-width="1.2" stroke="#000" stroke-miterlimit="10" fill="none"/><path d="M123.125 128.316l8.02-11.93" stroke-width="1.2" stroke="#f00" stroke-miterlimit="10" fill="none"/><path d="M117.906 142.137l-14.344-.985" stroke-width="1.2" stroke="#000" stroke-miterlimit="10" fill="none"/><path d="M103.563 141.152l-14.344-.984" stroke-width="1.2" stroke="#f00" stroke-miterlimit="10" fill="none"/><path d="M128.953 111.273h10v14h-10zm0 0" fill="#fff"/><use xlink:href="#a" x="128.953" y="122.412" fill="#f00"/><path d="M89.22 140.168l-6.322-12.91" stroke-width="1.2" stroke="#f00" stroke-miterlimit="10" fill="none"/><path d="M82.898 127.258l-6.32-12.914" stroke-width="1.2" stroke="#000" stroke-miterlimit="10" fill="none"/><path d="M84.22 133.168h10v14h-10zm0 0" fill="#fff"/><use xlink:href="#a" x="84.219" y="144.307" fill="#f00"/><path d="M76.578 114.344l-28.687-1.97M50.93 110.89L38.29 85.063M44.852 113.863l-12.64-25.828" stroke-width="1.2" stroke="#000" stroke-miterlimit="10" fill="none"/></g></svg>
